assets/svg/wallet_icon_wallet_emptyfavourites.svg

<svg width="48" height="48" viewBox="0 0 48 48" fill="none" xmlns="http://www.w3.org/2000/svg">
<path d="M18.1322 1.5C8.94656 1.5 1.5 8.94656 1.5 18.1322C1.5 27.3178 8.94656 34.7644 18.1322 34.7644C27.3178 34.7644 34.7644 27.3178 34.7644 18.1322C34.7644 8.94656 27.3178 1.5 18.1322 1.5ZM33.2813 18.1322C33.2813 26.4984 26.4984 33.2813 18.1322 33.2813C9.76594 33.2813 2.98313 26.4984 2.98313 18.1322C2.98313 9.76594 9.76594 2.98313 18.1322 2.98313C26.4984 2.98313 33.2813 9.76594 33.2813 18.1322ZM33.7528 33.7528C34.3481 33.1575 34.9819 32.6222 35.6438 32.1469C34.9763 31.4794 33.9 31.4428 33.1988 32.0747C33.0028 32.2509 32.8106 32.4338 32.6222 32.6222C32.4338 32.8106 32.2509 33.0028 32.0747 33.1988C31.4428 33.9 31.4794 34.9763 32.1469 35.6438C32.6222 34.9819 33.1575 34.3481 33.7528 33.7528Z" fill="#E1EAF8"/>
<rect x="8" y="8" width="20" height="20" rx="6" fill="#0166FF"/>
<path fill-rule="evenodd" clip-rule="evenodd" d="M15.736 13.1207C16.3089 13.041 17.0413 13.041 17.9715 13.041H18.0231C18.9533 13.041 19.6857 13.041 20.2586 13.1207C20.8472 13.2027 21.3156 13.3747 21.6841 13.758C22.0525 14.1401 22.2177 14.6262 22.2963 15.2346C22.3727 15.8292 22.3727 16.5901 22.3727 17.5564V19.9071C22.3727 20.6021 22.3727 21.1528 22.33 21.5673C22.2884 21.9772 22.1963 22.3466 21.9357 22.5937C21.7268 22.7923 21.4617 22.917 21.1797 22.9505C20.8259 22.992 20.4956 22.8188 20.171 22.5822C19.8431 22.343 19.4462 21.9824 18.9458 21.5278L18.9398 21.5223L18.9229 21.5073C18.6893 21.2948 18.5309 21.1517 18.3995 21.0524C18.2725 20.9566 18.1939 20.9219 18.1287 20.9081C18.0422 20.8908 17.9535 20.8908 17.867 20.9081C17.8018 20.9219 17.7232 20.9566 17.5963 21.0524C17.4648 21.1509 17.309 21.2925 17.0785 21.5021L17.0728 21.5073L17.056 21.5223C16.5527 21.9806 16.1539 22.3432 15.8248 22.5822C15.499 22.8188 15.1699 22.992 14.816 22.9505C14.5341 22.917 14.269 22.7923 14.06 22.5937C13.7994 22.3466 13.7084 21.9772 13.6657 21.5673C13.623 21.1528 13.623 20.6021 13.623 19.9071V17.5564C13.623 16.5889 13.623 15.8292 13.6994 15.2346C13.7792 14.6262 13.9432 14.1401 14.3105 13.758C14.679 13.3747 15.1485 13.2027 15.736 13.1207ZM16.5397 14.8934C16.3504 14.8934 16.197 15.0468 16.197 15.236C16.197 15.4252 16.3504 15.5786 16.5397 15.5786H19.4562C19.6454 15.5786 19.7988 15.4252 19.7988 15.236C19.7988 15.0468 19.6454 14.8934 19.4562 14.8934H16.5397Z" fill="white"/>
<path d="M46.4044 40.7484L37.3922 31.7362C36.8878 31.2319 36.1022 31.1794 35.5378 31.5759L31.9369 27.975C33.9225 25.1981 35.0934 21.7987 35.0934 18.1322C35.0934 8.78063 27.4847 1.17188 18.1331 1.17188C8.78156 1.17188 1.17188 8.78063 1.17188 18.1322C1.17188 27.4837 8.78063 35.0925 18.1322 35.0925C23.58 35.0925 28.4344 32.5106 31.5403 28.5066L35.0578 32.0241L32.025 35.0569L29.8894 32.9212C29.7609 32.7928 29.5537 32.7928 29.4253 32.9212C29.2969 33.0497 29.2969 33.2569 29.4253 33.3853L31.5769 35.5369C31.1803 36.1012 31.2328 36.8869 31.7372 37.3913L40.7494 46.4034C41.0231 46.6772 41.3859 46.8272 41.7731 46.8272C42.1603 46.8272 42.5231 46.6763 42.7969 46.4034L46.4053 42.795C46.9688 42.2316 46.9688 41.3128 46.4044 40.7484ZM18.1322 34.4362C9.1425 34.4362 1.82812 27.1219 1.82812 18.1322C1.82812 9.1425 9.1425 1.82812 18.1322 1.82812C27.1228 1.82812 34.4362 9.1425 34.4362 18.1322C34.4362 27.1219 27.1228 34.4362 18.1322 34.4362ZM45.9403 42.3319L42.3319 45.9403C42.1828 46.0894 41.9841 46.1719 41.7722 46.1719C41.5603 46.1719 41.3625 46.0894 41.2125 45.9403L32.2003 36.9281C31.8919 36.6197 31.8919 36.1172 32.2003 35.8088L35.8088 32.2003C36.1172 31.8919 36.6197 31.8919 36.9281 32.2003L45.9403 41.2125C46.2487 41.5209 46.2487 42.0234 45.9403 42.3319Z" fill="#9A9A9A"/>
<path d="M37.4517 35.5037L35.5045 37.4509C35.474 37.4813 35.4498 37.5175 35.4332 37.5573C35.4167 37.5971 35.4082 37.6398 35.4082 37.6829C35.4082 37.726 35.4167 37.7687 35.4332 37.8085C35.4498 37.8483 35.474 37.8845 35.5045 37.9149C35.5348 37.9454 35.5709 37.9697 35.6106 37.9862C35.6503 38.0028 35.6929 38.0114 35.7359 38.0115C35.7789 38.0115 35.8215 38.0031 35.8613 37.9867C35.901 37.9703 35.9372 37.9463 35.9676 37.9159L37.9148 35.9687C37.9454 35.9383 37.9696 35.9021 37.9861 35.8623C38.0026 35.8225 38.0111 35.7798 38.0111 35.7367C38.0111 35.6936 38.0026 35.6509 37.9861 35.6111C37.9696 35.5712 37.9454 35.5351 37.9148 35.5046C37.8845 35.4741 37.8484 35.4499 37.8087 35.4334C37.769 35.4169 37.7265 35.4083 37.6835 35.4082C37.6405 35.4081 37.5978 35.4165 37.5581 35.4329C37.5183 35.4493 37.4822 35.4733 37.4517 35.5037ZM42.173 40.2259L40.2267 42.1731C40.1808 42.2189 40.1495 42.2773 40.1367 42.3409C40.124 42.4045 40.1305 42.4704 40.1553 42.5304C40.1801 42.5903 40.2221 42.6415 40.276 42.6776C40.33 42.7136 40.3934 42.7328 40.4583 42.7328C40.5417 42.7328 40.6261 42.7009 40.6898 42.6362L42.6361 40.689C42.6666 40.6586 42.6908 40.6224 42.7074 40.5826C42.7239 40.5428 42.7324 40.5001 42.7324 40.457C42.7324 40.4139 42.7239 40.3712 42.7074 40.3314C42.6908 40.2915 42.6666 40.2554 42.6361 40.2249C42.6056 40.1946 42.5695 40.1705 42.5297 40.1541C42.4899 40.1378 42.4473 40.1294 42.4043 40.1295C42.3613 40.1295 42.3187 40.1381 42.279 40.1546C42.2393 40.1712 42.2033 40.1954 42.173 40.2259Z" fill="#9A9A9A"/>
<path d="M39.1829 15.6156C39.0582 15.6156 38.9392 15.5444 38.8839 15.4225C38.8089 15.2575 38.882 15.0635 39.047 14.9885L41.2707 13.9806C41.4357 13.9056 41.6298 13.9788 41.7048 14.1438C41.7798 14.3088 41.7067 14.5028 41.5417 14.5778L39.3179 15.5856C39.2748 15.6063 39.2289 15.6156 39.1829 15.6156ZM40.9454 24.1863C40.8929 24.1863 40.8404 24.1741 40.7917 24.1478L38.6382 22.9985C38.4779 22.9131 38.4179 22.7144 38.5032 22.5541C38.5885 22.3938 38.7873 22.3338 38.9476 22.4191L41.101 23.5685C41.1391 23.5887 41.1728 23.6163 41.2002 23.6497C41.2276 23.683 41.2481 23.7214 41.2607 23.7626C41.2732 23.8039 41.2775 23.8473 41.2733 23.8902C41.269 23.9331 41.2564 23.9748 41.236 24.0128C41.2077 24.0653 41.1658 24.1091 41.1146 24.1396C41.0635 24.1701 41.005 24.1862 40.9454 24.1863ZM23.7114 39.8256C23.653 39.8256 23.5956 39.8101 23.5452 39.7806C23.4948 39.7511 23.4531 39.7087 23.4245 39.6578L22.2301 37.5288C22.1875 37.4529 22.1767 37.3633 22.2002 37.2795C22.2236 37.1957 22.2794 37.1247 22.3553 37.082C22.4311 37.0394 22.5208 37.0286 22.6045 37.0521C22.6883 37.0756 22.7593 37.1314 22.802 37.2072L23.9964 39.3363C24.0854 39.4947 24.0292 39.6944 23.8707 39.7834C23.821 39.8125 23.7657 39.8256 23.7114 39.8256ZM14.1273 40.1866C14.0842 40.1866 14.0401 40.1781 13.9979 40.1603C13.9583 40.1433 13.9223 40.1187 13.8922 40.0879C13.8621 40.057 13.8383 40.0205 13.8223 39.9804C13.8063 39.9404 13.7983 39.8976 13.7989 39.8545C13.7994 39.8113 13.8084 39.7687 13.8254 39.7291L14.7864 37.4847C14.8576 37.3178 15.0507 37.241 15.2167 37.3122C15.3835 37.3835 15.4604 37.5766 15.3892 37.7435L14.4282 39.9878C14.4031 40.0468 14.3612 40.0971 14.3077 40.1325C14.2541 40.1678 14.1914 40.1866 14.1273 40.1866Z" fill="#0166FF"/>
</svg>

<svg xmlns="http://www.w3.org/2000/svg" width="48" height="48" fill="none"><path fill="#E1EAF8" d="M18.132 1.5C8.947 1.5 1.5 8.947 1.5 18.132s7.447 16.632 16.632 16.632 16.632-7.446 16.632-16.632c0-9.185-7.446-16.632-16.632-16.632m15.15 16.632c0 8.366-6.784 15.15-15.15 15.15S2.983 26.497 2.983 18.131 9.766 2.983 18.133 2.983c8.365 0 15.148 6.783 15.148 15.15m.47 15.62c.596-.595 1.23-1.13 1.892-1.605a1.78 1.78 0 0 0-2.445-.072 15 15 0 0 0-1.124 1.124 1.78 1.78 0 0 0 .072 2.445 15 15 0 0 1 1.606-1.891"/><rect width="20" height="20" x="8" y="8" fill="#0166FF" rx="6"/><path fill="#fff" fill-rule="evenodd" d="M15.736 13.12c.573-.079 1.305-.079 2.235-.079h.052c.93 0 1.663 0 2.236.08.588.082 1.057.254 1.425.637.368.382.534.868.612 1.477.077.594.077 1.355.077 2.321v2.351c0 .695 0 1.246-.043 1.66-.042.41-.134.78-.394 1.027a1.32 1.32 0 0 1-.756.357c-.354.041-.684-.132-1.009-.369-.328-.239-.725-.6-1.225-1.054l-.006-.006-.017-.015a9 9 0 0 0-.523-.455.7.7 0 0 0-.271-.144.7.7 0 0 0-.262 0 .7.7 0 0 0-.27.144c-.132.099-.288.24-.519.45l-.005.005-.017.015c-.503.459-.902.821-1.231 1.06-.326.237-.655.41-1.009.369a1.33 1.33 0 0 1-.756-.357c-.26-.247-.352-.617-.394-1.027-.043-.414-.043-.965-.043-1.66v-2.35c0-.968 0-1.728.076-2.322.08-.609.244-1.095.611-1.477.369-.383.838-.555 1.426-.637m.804 1.773a.343.343 0 1 0 0 .686h2.916a.343.343 0 0 0 0-.686z" clip-rule="evenodd"/><path fill="#9A9A9A" d="m46.404 40.748-9.012-9.012a1.45 1.45 0 0 0-1.854-.16l-3.601-3.601a16.87 16.87 0 0 0 3.156-9.843c0-9.351-7.608-16.96-16.96-16.96S1.172 8.78 1.172 18.132s7.609 16.96 16.96 16.96c5.448 0 10.302-2.581 13.408-6.585l3.518 3.517-3.033 3.033-2.136-2.136a.328.328 0 1 0-.464.464l2.152 2.152a1.45 1.45 0 0 0 .16 1.854l9.012 9.012c.274.274.637.424 1.024.424s.75-.15 1.024-.424l3.608-3.608a1.45 1.45 0 0 0 0-2.047m-28.272-6.312c-8.99 0-16.304-7.314-16.304-16.304S9.143 1.828 18.132 1.828c8.99 0 16.304 7.315 16.304 16.304 0 8.99-7.313 16.304-16.304 16.304m27.808 7.896-3.608 3.608a.79.79 0 0 1-.56.232.8.8 0 0 1-.56-.232L32.2 36.928a.793.793 0 0 1 0-1.12L35.81 32.2a.793.793 0 0 1 1.12 0l9.011 9.012a.793.793 0 0 1 0 1.12"/><path fill="#9A9A9A" d="m37.452 35.504-1.947 1.947a.329.329 0 0 0 .356.536.3.3 0 0 0 .107-.071l1.947-1.947a.326.326 0 0 0 0-.464.326.326 0 0 0-.463-.001m4.721 4.722-1.946 1.947a.329.329 0 0 0 .231.56.32.32 0 0 0 .232-.097l1.946-1.947a.33.33 0 0 0 0-.464.33.33 0 0 0-.463 0"/><path fill="#0166FF" d="M39.183 15.616a.328.328 0 0 1-.136-.627l2.224-1.008a.328.328 0 1 1 .27.597l-2.223 1.008a.3.3 0 0 1-.135.03m1.762 8.57a.3.3 0 0 1-.153-.038l-2.154-1.15a.328.328 0 1 1 .31-.579l2.153 1.15a.33.33 0 0 1 .172.321.33.33 0 0 1-.328.296m-17.234 15.64a.33.33 0 0 1-.287-.168l-1.194-2.13a.328.328 0 0 1 .572-.32l1.194 2.128a.328.328 0 0 1-.285.49m-9.584.36a.33.33 0 0 1-.235-.098.33.33 0 0 1-.067-.359l.961-2.244a.328.328 0 1 1 .603.258l-.96 2.245a.33.33 0 0 1-.302.199"/></svg>
